X: 33569
T: Rakes Of Kildare, The
R: jig
M: 6/8
K: Adorian
EAA AGA|BcB BAG|EAA AGA|GFD GFD|
EAA AGA|BcB Bcd|e=fe edB|1 BAG A2G:|2 BAG A2e||
eaa age|aea b2a|egg gfd|BcB Bcd|
eaa age|aea b2a|e=fe edB|1 BAG A2e:|2 BAG A2G||

